X: 1
T: The Connaughtmans Rambles   (polka)
O: trad. Ireland
R: polka
S: Fiddle Hell Online 2021-11-04
Z: 2021 John Chambers <jc:trillian.mit.edu>
M: 2/4
L: 1/8
K: D
uA |\
FA dA | (BA) (udA) | FA de |(fd) ue2 ||\
FA dA | (BA) (ude) | (f/e/d) (uBA) (Bd) (ud |]
e) |\
(fa) (uab) | (af) (ued/e/) | fd BA | (Be) ue2 ||\
(fa) (uab) | (af) (ued/e/) | (fd) (uBA) | (Bd) ud |]
